kora/panel/16/state-offline.svg

<svg xmlns="http://www.w3.org/2000/svg" width="16" height="16" viewBox="0 0 16 16">
 <defs>
  <style id="current-color-scheme" type="text/css">
   .ColorScheme-Text { color:#dfdfdf; } .ColorScheme-Highlight { color:#4285f4; } .ColorScheme-NeutralText { color:#ff9800; } .ColorScheme-PositiveText { color:#4caf50; } .ColorScheme-NegativeText { color:#f44336; }
  </style>
 </defs>
 <path style="fill:currentColor" class="ColorScheme-Text" d="m8 0c4.415 0 8 3.585 8 8s-3.585 8-8 8-8-3.585-8-8 3.585-8 8-8zm0 .818c-3.964 0-7.182 3.218-7.182 7.182s3.218 7.182 7.182 7.182 7.182-3.218 7.182-7.182-3.218-7.182-7.182-7.182zm-3 6.182c.549 0 1 .451 1 1s-.451 1-1 1-1-.451-1-1 .451-1 1-1zm3 0c.549 0 1 .451 1 1s-.451 1-1 1-1-.451-1-1 .451-1 1-1zm3 0c.549 0 1 .451 1 1s-.451 1-1 1-1-.451-1-1 .451-1 1-1z"/>
</svg>

<svg xmlns="http://www.w3.org/2000/svg" width="16" height="16" version="1.1">
 <defs>
  <style id="current-color-scheme" type="text/css">
   .ColorScheme-Text { color:#dfdfdf; } .ColorScheme-Highlight { color:#4285f4; }
  </style>
 </defs>
 <path style="fill:currentColor" class="ColorScheme-Text" d="M 8 1 A 7 7 0 0 0 1 8 A 7 7 0 0 0 8 15 A 7 7 0 0 0 15 8 A 7 7 0 0 0 8 1 z M 5 7 A 1 1 0 0 1 6 8 A 1 1 0 0 1 5 9 A 1 1 0 0 1 4 8 A 1 1 0 0 1 5 7 z M 8 7 A 1 1 0 0 1 9 8 A 1 1 0 0 1 8 9 A 1 1 0 0 1 7 8 A 1 1 0 0 1 8 7 z M 11 7 A 1 1 0 0 1 12 8 A 1 1 0 0 1 11 9 A 1 1 0 0 1 10 8 A 1 1 0 0 1 11 7 z"/>
</svg>
